T: Emily's Gigue
M: 6/8
L: 1/8
K: Gmaj
|: G/A/ |BAG FED | G2 B d2 B | e2 c d2 B | cBA FED |
[1 BAG FED | G2 B D2 B | EGG DGG | F^EF G2 :|
[2 BB/A/G FED | G2 B d2 B | egg dgg | f^ef g2 ||
|: g/a/ |bag fed | g2 b d2 g | fed cBA | e2 d B2 g |
[1 bag fed | g2 b d2 b | c'ag f^ef | g3- g2 :|
[2 bb/a/g fed | g2 B d2 B | cAG F^EF | G3- G2 |]
